X: 26495
T: Michael Joseph Dunne
R: hornpipe
M: 4/4
K: Dmajor
|:d>A (3GFE D>F (3ABc|d>Ac>A B>FA>F|G>A (3B=c^c d>A (3FGA|(3GFE (3FED (3EFG (3ABc|
[1 d>A (3GFE D>F (3ABc|d>Ac>A B>FA>F|G>AB>c d>AF>A|G>EF>E D>dc>d:|
[2 d2 (3GFE D2 (3ABc|d>ac>a B>fA>f|g>d (3ABc d>a (3fga|g>e (3cde d2||
|:(3dcd|e>A (3A^GA f>A (3AGA|g>Af>A e>A (3A^GA|g>Af>A (3efe (3def|(3efe (3dcB (3ABA (3FGA|
d>A (3GFE D>F (3ABc|d>Ac>A B>FA>F|G>D (3ABc d>A (3FGA|1 e>Ac>A d2:|2 G>EF>E D>dA>c||

